X: 28563
T: Murphy Delany
R: jig
M: 6/8
K: Gmajor
D/E/|:G3 G3|GAG Bcd|G2G GFG|EAG FED|
G3 G3|GAG Bcd|ege dcB|ABG FED:|
|:B2d ded|dgd dcB|c2e efe|ege edc|
B2d ded|dgd def|gfe dcB|ABG FED:|

